!!!COM: Ernest Reyer
!!!CNT: Francais
!!!TXO: Francais
!!!OTL: A un Berceau
!!!ODT: 1851/
!!!LYR: Pierre DuPont
!!!ENC: Jacob Pegg
!!!YOR: Romantic French Song 1830-1870 -David Tunley, ed., New York: Garland Publishing, Inc., 1995,
!!!YOR: Vol. 1 - 'Early Romances'
!!NB: Vocal melody and text only encoded.
!!NB: First instance of melodic material only encoded.
**kern	**silbe
*clef G2	*
*k[b-e-]	*
*M2/2	*
=4	=4
*M3/2	*
1r	.
4r;	.
{4f	{Que
=5	=5
*M2/2	*
4.b-	Dieu,
8dd	no-
(8cc	-tre
8a	|
8b-	sou-
8g)	|
=6	=6
4f	-ve-
4b-	-rain
(4cc	mai^-
8b-)}	-tre,}
{8b-	{E/-
=7	=7
4.dd	-loi-
8dd	-gne
(8cc	tout
4ee-)	|
8dd	pe/-
=8	=8
2dd}	-ril}
4r	.
{4f	{Du
=9	=9
!!dot added to correct timing
4.b-	bel
8dd	en-
(8cc	-fant
8a	|
8b-	qui
8g)	|
=10	=10
4f	vient
4b-	de
(4cc	nai^-
8b-)}	-tre}
{8b-	{Par-
=11	=11
4.dd	-mi
8dd	les
4.gg	fleurs
8gg	d'A-
=12	=12
2.ff}	-vril,}
{4dd	{Par-
=13	=13
4b-	-mi
4b-	les
(8b-q	fleurs
8ddq	|
4.cc;)	|
8g	d'A-
=14	=14
2.b-}	-vril.}
4r	.
=15	=15
4r	.
4r	.
4r	.
4r	.
=16	=16
2r	.
2r	.
=17	=17
2r	.
4r	.
4r	.
=18	=18
*M3/2	*
2r	.
2r	.
2r	.
=19	=19
*M4/4	*
{4dd	{Quand
4dd	les
4dd	nids
4dd	sont
=20	=20
4dd	en-
8cc	-co-
8bn	-re
[8cc	vi-
8cc]}	-des,}
{(8b-	{Les
8a)	|
=21	=21
4g	nids
4a	ou\
4b-	sou-
4cc	-pi-
=22	=22
4dd	-re
(8een	l'oi-
8ff#)	|
2dd;}	-seau,}
=23	=23
{4dd	{Me\-
8.dd	-re,
16dd	je
4dd	vois
4dd	tes
=24	=24
4dd	yeux
(8cc	a-
8bn)	|
[8cc	-vi-
8cc]}	-des}
{(8b-	{Res
8a)	|
=25	=25
4g	-ter
4a	fi-
4b-	-xe/s
4cc	sur
=26	=26
*M3/2	*
8b-q	ton
8ccq	|
4.dd	|
8cc	ber-
2b-}	-ceau;}
4r	.
{(8a	{C'est
8b-)	|
=27	=27
*M4/4	*
4cc	que
(8cc	dans
8dd)	|
4ee-	ce
(8ee-	ber-
8gg)	|
=28	=28
4ee-	-ceau
(8ee-	re-
8dd)	|
[8cc	-po-
8cc]}	-se}
{(8b-	{Le
8cc)	|
=29	=29
4dd	nou-
(8dd	-veau
8ff)	|
4dd	ne/,
(8dd	le
8cc)	|
=30	=30
4b-	bien
(8b-	ai-
8cc)	|
4cc}	-me/,}
8r	.
{8cc	{Son
=31	=31
4.ff	oeil
8ff	est
4ee-	bleu,
4dd	sa
=32	=32
4cc	le\-
(8cc	-vre
8ee-)	est
[8dd	ro-
8dd]}	-se,}
{4cc	{Son
=33	=33
4b-	pe-
(8b-	-tit
8dd)	|
[8cc	sou-
8cc]	-fle
4b-	est
=34	=34
*M3/2	*
4a	em-
(8a	-bau-
8cc)	|
2b-}	-me/}
4r	.
4r	.
*-	*-
